files/2/16x16/actions/add-folders-to-archive.svg

<?xml version="1.0" encoding="UTF-8" standalone="no"?>
<!-- Created with Inkscape (http://www.inkscape.org/) -->

<svg
   xmlns:dc="http://purl.org/dc/elements/1.1/"
   xmlns:cc="http://creativecommons.org/ns#"
   xmlns:rdf="http://www.w3.org/1999/02/22-rdf-syntax-ns#"
   xmlns:svg="http://www.w3.org/2000/svg"
   xmlns="http://www.w3.org/2000/svg"
   xmlns:sodipodi="http://sodipodi.sourceforge.net/DTD/sodipodi-0.dtd"
   xmlns:inkscape="http://www.inkscape.org/namespaces/inkscape"
   id="svg3396"
   height="16"
   width="16"
   version="1.0"
   inkscape:version="0.48.5 r10040"
   sodipodi:docname="add-folders-to-archive.svg">
  <metadata
     id="metadata64">
    <rdf:RDF>
      <cc:Work
         rdf:about="">
        <dc:format>image/svg+xml</dc:format>
        <dc:type
           rdf:resource="http://purl.org/dc/dcmitype/StillImage" />
        <dc:title></dc:title>
      </cc:Work>
    </rdf:RDF>
  </metadata>
  <sodipodi:namedview
     pagecolor="#ffffff"
     bordercolor="#666666"
     borderopacity="1"
     objecttolerance="10"
     gridtolerance="10"
     guidetolerance="10"
     inkscape:pageopacity="0"
     inkscape:pageshadow="2"
     inkscape:window-width="1280"
     inkscape:window-height="998"
     id="namedview62"
     showgrid="true"
     inkscape:zoom="16.793652"
     inkscape:cx="13.185379"
     inkscape:cy="12.32158"
     inkscape:window-x="0"
     inkscape:window-y="0"
     inkscape:window-maximized="1"
     inkscape:current-layer="svg3396">
    <inkscape:grid
       type="xygrid"
       id="grid3906"
       empspacing="5"
       visible="true"
       enabled="true"
       snapvisiblegridlinesonly="true" />
  </sodipodi:namedview>
  <defs
     id="defs3398">
    <radialGradient
       id="radialGradient2661"
       gradientUnits="userSpaceOnUse"
       cy="35.126999"
       cx="23.070999"
       gradientTransform="matrix(1.0638,0.013724,-0.009553,0.23168,118.76592,36.591726)"
       r="10.319">
      <stop
         id="stop2093"
         offset="0" />
      <stop
         id="stop2095"
         style="stop-opacity:0"
         offset="1" />
    </radialGradient>
    <linearGradient
       id="linearGradient2658"
       y2="46.073002"
       gradientUnits="userSpaceOnUse"
       x2="28.857"
       y1="26"
       x1="28.857"
       gradientTransform="translate(106.84292,-0.48127441)">
      <stop
         id="stop3499"
         style="stop-color:#699536"
         offset="0" />
      <stop
         id="stop3501"
         style="stop-color:#587d2d"
         offset="1" />
    </linearGradient>
    <linearGradient
       id="linearGradient2656"
       y2="32.485001"
       gradientUnits="userSpaceOnUse"
       x2="24.104"
       gradientTransform="matrix(0.89889,0,0,0.89347,121.37892,14.952726)"
       y1="15.169"
       x1="24.104">
      <stop
         id="stop2266"
         style="stop-color:#d7e866"
         offset="0" />
      <stop
         id="stop2268"
         style="stop-color:#8cab2a"
         offset="1" />
    </linearGradient>
    <linearGradient
       id="linearGradient2653"
       y2="47.272999"
       gradientUnits="userSpaceOnUse"
       x2="24.139"
       gradientTransform="matrix(0.53994,0,0,0.53668,129.99392,23.012726)"
       y1="6.5317001"
       x1="24.139">
      <stop
         id="stop4224"
         style="stop-color:#fff"
         offset="0" />
      <stop
         id="stop4226"
         style="stop-color:#fff;stop-opacity:0"
         offset="1" />
    </linearGradient>
    <radialGradient
       id="radialGradient2455"
       gradientUnits="userSpaceOnUse"
       cy="5.0172"
       cx="3"
       gradientTransform="matrix(-1.2749e-8,1.7143,-2.1593,-1.46e-8,12.809,2.857)"
       r="21">
      <stop
         id="stop3486"
         style="stop-color:#bdbdbd"
         offset="0" />
      <stop
         id="stop3488"
         style="stop-color:#d0d0d0"
         offset="1" />
    </radialGradient>
    <linearGradient
       id="linearGradient2453"
       y2="16.190001"
       gradientUnits="userSpaceOnUse"
       x2="62.988998"
       gradientTransform="translate(-50.941,0)"
       y1="13.183"
       x1="62.988998">
      <stop
         id="stop6406"
         style="stop-color:#f9f9f9"
         offset="0" />
      <stop
         id="stop6408"
         style="stop-color:#c9c9c9"
         offset="1" />
    </linearGradient>
    <radialGradient
       id="radialGradient7600-312"
       gradientUnits="userSpaceOnUse"
       cy="486.64999"
       cx="605.71002"
       gradientTransform="matrix(-0.03213,0,0,0.037059,23.363,25.412)"
       r="117.14">
      <stop
         id="stop2681"
         offset="0" />
      <stop
         id="stop2683"
         style="stop-opacity:0"
         offset="1" />
    </radialGradient>
    <radialGradient
       id="radialGradient7598-526"
       gradientUnits="userSpaceOnUse"
       cy="486.64999"
       cx="605.71002"
       gradientTransform="matrix(0.03213,0,0,0.037059,24.637,25.412)"
       r="117.14">
      <stop
         id="stop2675"
         offset="0" />
      <stop
         id="stop2677"
         style="stop-opacity:0"
         offset="1" />
    </radialGradient>
    <linearGradient
       id="linearGradient7596-975"
       y2="609.51001"
       gradientUnits="userSpaceOnUse"
       x2="302.85999"
       gradientTransform="matrix(0.08284,0,0,0.037059,-5.9408,25.412)"
       y1="366.64999"
       x1="302.85999">
      <stop
         id="stop2667"
         style="stop-opacity:0"
         offset="0" />
      <stop
         id="stop2669"
         offset=".5" />
      <stop
         id="stop2671"
         style="stop-opacity:0"
         offset="1" />
    </linearGradient>
    <linearGradient
       id="linearGradient2446"
       y2="15.944"
       gradientUnits="userSpaceOnUse"
       x2="65.339996"
       gradientTransform="translate(-53.765,-0.11419)"
       y1="45.113998"
       x1="82.453003">
      <stop
         id="stop3624"
         style="stop-color:#bb2b12"
         offset="0" />
      <stop
         id="stop3626"
         style="stop-color:#cd7233"
         offset="1" />
    </linearGradient>
    <radialGradient
       id="radialGradient2444"
       gradientUnits="userSpaceOnUse"
       cy="14.113"
       cx="63.969002"
       gradientTransform="matrix(1.5647,-9.5143e-8,6.1772e-8,1.0159,-86.213,8.1461)"
       r="23.097">
      <stop
         id="stop3618"
         style="stop-color:#f0c178"
         offset="0" />
      <stop
         id="stop3270"
         style="stop-color:#e18941"
         offset=".5" />
      <stop
         id="stop3620"
         style="stop-color:#ec4f18"
         offset="1" />
    </radialGradient>
    <linearGradient
       id="linearGradient2441"
       y2="36.658001"
       gradientUnits="userSpaceOnUse"
       x2="22.809"
       gradientTransform="matrix(1.1447,0,0,0.99775,-3.4661,1.0988)"
       y1="49.629002"
       x1="22.934999">
      <stop
         id="stop2661"
         style="stop-color:#0a0a0a;stop-opacity:.498"
         offset="0" />
      <stop
         id="stop2663"
         style="stop-color:#0a0a0a;stop-opacity:0"
         offset="1" />
    </linearGradient>
    <radialGradient
       id="radialGradient2438"
       gradientUnits="userSpaceOnUse"
       cy="8.3021002"
       cx="7.2646999"
       gradientTransform="matrix(0,1.208,-1.6272,0,26.372,8.2665)"
       r="20.98">
      <stop
         id="stop2693"
         style="stop-color:#fff;stop-opacity:0.4"
         offset="0" />
      <stop
         id="stop2695"
         style="stop-color:#fff;stop-opacity:0"
         offset="1" />
    </radialGradient>
    <linearGradient
       id="linearGradient2435"
       y2="33.955002"
       gradientUnits="userSpaceOnUse"
       x2="15.215"
       y1="22.292"
       x1="11.566">
      <stop
         id="stop2687"
         style="stop-color:#fff;stop-opacity:.27451"
         offset="0" />
      <stop
         id="stop2689"
         style="stop-color:#fff;stop-opacity:.078431"
         offset="1" />
    </linearGradient>
  </defs>
  <path
     sodipodi:nodetypes="ccccsssccccccc"
     inkscape:connector-curvature="0"
     id="path3782-3"
     d="m 2.0000011,4 c -0.496942,0 -1,0.4696179 -1,1 l 0,1 C 0.53482406,6 -8.6993926e-4,6.4172975 1.0607383e-6,7 l 0,8 c 0,0.60223 0.4819389992617,1 1.0000000392617,1 l 11.9999999,0 c 0.537645,0 1.001045,-0.397772 1,-1 l 0,-6.9999999 c -6.31e-4,-0.603019 -0.474177,-1 -1,-1 l -1,0 0,-2.0000001 c 0,-0.557324 -0.477664,-1 -1,-1 z"
     style="font-size:medium;font-style:normal;font-variant:normal;font-weight:normal;font-stretch:normal;text-indent:0;text-align:start;text-decoration:none;line-height:normal;letter-spacing:normal;word-spacing:normal;text-transform:none;direction:ltr;block-progression:tb;writing-mode:lr-tb;text-anchor:start;baseline-shift:baseline;color:#000000;fill:#e9b080;fill-opacity:1;fill-rule:nonzero;stroke:none;stroke-width:0.81800002;marker:none;visibility:visible;display:inline;overflow:visible;enable-background:accumulate;font-family:Sans;-inkscape-font-specification:Sans" />
  <path
     style="font-size:medium;font-style:normal;font-variant:normal;font-weight:normal;font-stretch:normal;text-indent:0;text-align:start;text-decoration:none;line-height:normal;letter-spacing:normal;word-spacing:normal;text-transform:none;direction:ltr;block-progression:tb;writing-mode:lr-tb;text-anchor:start;baseline-shift:baseline;color:#000000;fill:#000000;fill-opacity:0.32038838;fill-rule:nonzero;stroke:none;stroke-width:0.81800002;marker:none;visibility:visible;display:inline;overflow:visible;enable-background:accumulate;font-family:Sans;-inkscape-font-specification:Sans"
     d="m 2.0000011,4 c -0.496942,0 -1,0.4696179 -1,1 l 0,1 C 0.53482406,6 -8.6993926e-4,6.4172976 1.0607383e-6,7.0000001 l 0,7.9999999 c 0,0.60223 0.4701499992617,1 1.0000000392617,1 l 11.9999999,0 c 0.541553,0 1.001045,-0.397772 1,-1 l 0,-6.9999999 c -6.31e-4,-0.603019 -0.48019,-0.920707 -1,-1 l -1,0 0,-2.0000001 c 0,-0.557324 -0.477664,-1 -1,-1 z m -1,3.0000001 7,-1e-7 0,1 4.9999999,10e-8 0,6.9999999 -11.9999999,0 z"
     id="path3768-9"
     inkscape:connector-curvature="0"
     sodipodi:nodetypes="ssccsssccscsssccccccc" />
  <path
     inkscape:connector-curvature="0"
     style="font-size:medium;font-style:normal;font-variant:normal;font-weight:normal;font-stretch:normal;text-indent:0;text-align:start;text-decoration:none;line-height:normal;letter-spacing:normal;word-spacing:normal;text-transform:none;direction:ltr;block-progression:tb;writing-mode:lr-tb;text-anchor:start;baseline-shift:baseline;color:#000000;fill:#000000;fill-opacity:0.10196078;fill-rule:nonzero;stroke:none;stroke-width:0.81800002;marker:none;visibility:visible;display:inline;overflow:visible;enable-background:accumulate;font-family:Sans;-inkscape-font-specification:Sans"
     d="m 2.0000011,4 c -0.496942,0 -1,0.4696179 -1,1 l 0,1 C 0.53482406,6 -8.6993926e-4,6.4172975 1.0607383e-6,7 l 0,8 c 0,0.60223 0.4819389992617,1 1.0000000392617,1 l 11.9999999,0 c 0.268822,0 0.504575,-0.106529 0.6875,-0.28125 0.09943,-0.09041 0.164032,-0.182628 0.21875,-0.3125 0.05139,-0.121979 0.09401,-0.255693 0.09375,-0.40625 l 0,-7 C 13.999843,7.8492453 13.959421,7.7095718 13.906251,7.59375 13.857091,7.4799225 13.771334,7.3962986 13.687501,7.3125 13.501742,7.1268167 13.271735,7 13.000001,7 l -1,0 0,-2 c 0,-0.557324 -0.477664,-1 -1,-1 L 2.0000011,4 z"
     id="path2987" />
  <path
     sodipodi:nodetypes="ccccsssccccccc"
     inkscape:connector-curvature="0"
     id="path3782"
     d="m 4.0000011,0 c -0.496942,0 -1,0.4696179 -1,1 l 0,1 c -0.465177,0 -1.000871,0.4172975 -1,1 l 0,8 c 0,0.60223 0.481939,1 1,1 l 11.9999999,0 c 0.537645,0 1.001045,-0.397772 1,-1 l 0,-6.9999999 c -6.31e-4,-0.603019 -0.474177,-1 -1,-1 l -1,0 0,-2.0000001 c 0,-0.557324 -0.477664,-1 -1,-1 z"
     style="font-size:medium;font-style:normal;font-variant:normal;font-weight:normal;font-stretch:normal;text-indent:0;text-align:start;text-decoration:none;line-height:normal;letter-spacing:normal;word-spacing:normal;text-transform:none;direction:ltr;block-progression:tb;writing-mode:lr-tb;text-anchor:start;baseline-shift:baseline;color:#000000;fill:#e9b080;fill-opacity:1;fill-rule:nonzero;stroke:none;stroke-width:0.81800002;marker:none;visibility:visible;display:inline;overflow:visible;enable-background:accumulate;font-family:Sans;-inkscape-font-specification:Sans" />
  <path
     style="font-size:medium;font-style:normal;font-variant:normal;font-weight:normal;font-stretch:normal;text-indent:0;text-align:start;text-decoration:none;line-height:normal;letter-spacing:normal;word-spacing:normal;text-transform:none;direction:ltr;block-progression:tb;writing-mode:lr-tb;text-anchor:start;baseline-shift:baseline;color:#000000;fill:#000000;fill-opacity:0.32038838;fill-rule:nonzero;stroke:none;stroke-width:0.81800002;marker:none;visibility:visible;display:inline;overflow:visible;enable-background:accumulate;font-family:Sans;-inkscape-font-specification:Sans"
     d="m 4.0000011,0 c -0.496942,0 -1,0.4696179 -1,1 l 0,1 c -0.465177,0 -1.000871,0.4172976 -1,1.0000001 l 0,7.9999999 c 0,0.60223 0.47015,1 1,1 l 11.9999999,0 c 0.541553,0 1.001045,-0.397772 1,-1 l 0,-6.9999999 c -6.31e-4,-0.603019 -0.48019,-0.920707 -1,-1 l -1,0 0,-2.0000001 c 0,-0.557324 -0.477664,-1 -1,-1 z m -1,3.0000001 L 10.000001,3 l 0,1 5,1e-7 0,6.9999999 -11.9999999,0 z"
     id="path3768"
     inkscape:connector-curvature="0"
     sodipodi:nodetypes="ssccsssccscsssccccccc" />
  <path
     inkscape:connector-curvature="0"
     style="fill:#859900"
     d="m 15.999961,9.9999265 -3,0 0,-2.9999999 -2.9999999,0 0,2.9999999 -3,0 0,2.9999995 3,0 0,3 2.9999999,0 0,-3 3,0 z"
     id="path18" />
</svg>

<?xml version="1.0" encoding="UTF-8" standalone="no"?>
<svg
   xmlns:dc="http://purl.org/dc/elements/1.1/"
   xmlns:cc="http://creativecommons.org/ns#"
   xmlns:rdf="http://www.w3.org/1999/02/22-rdf-syntax-ns#"
   xmlns:svg="http://www.w3.org/2000/svg"
   xmlns="http://www.w3.org/2000/svg"
   xmlns:sodipodi="http://sodipodi.sourceforge.net/DTD/sodipodi-0.dtd"
   xmlns:inkscape="http://www.inkscape.org/namespaces/inkscape"
   width="16"
   height="16"
   viewBox="0 0 16 16"
   id="svg2"
   version="1.1"
   inkscape:version="0.48.5 r10040"
   sodipodi:docname="add-folders-to-archive.svg">
  <metadata
     id="metadata24">
    <rdf:RDF>
      <cc:Work
         rdf:about="">
        <dc:format>image/svg+xml</dc:format>
        <dc:type
           rdf:resource="http://purl.org/dc/dcmitype/StillImage" />
      </cc:Work>
    </rdf:RDF>
  </metadata>
  <defs
     id="defs22" />
  <sodipodi:namedview
     pagecolor="#ffffff"
     bordercolor="#666666"
     borderopacity="1"
     objecttolerance="10"
     gridtolerance="10"
     guidetolerance="10"
     inkscape:pageopacity="0"
     inkscape:pageshadow="2"
     inkscape:window-width="1280"
     inkscape:window-height="969"
     id="namedview20"
     showgrid="true"
     inkscape:zoom="20.85965"
     inkscape:cx="2.9838202"
     inkscape:cy="9.0945292"
     inkscape:window-x="0"
     inkscape:window-y="0"
     inkscape:window-maximized="1"
     inkscape:current-layer="svg2">
    <inkscape:grid
       type="xygrid"
       id="grid3085" />
  </sodipodi:namedview>
  <path
     sodipodi:nodetypes="ccccsssccccccc"
     inkscape:connector-curvature="0"
     id="path3782-3"
     d="M 2,4 C 1.503058,4 1,4.4696179 1,5 L 1,6 C 0.534823,6 -8.71e-4,6.4172975 0,7 l 0,8 c 0,0.60223 0.481939,1 1,1 l 12,0 c 0.537645,0 1.001045,-0.397772 1,-1 l 0,-6.9999999 c -6.31e-4,-0.603019 -0.474177,-1 -1,-1 l -1,0 L 12,5 C 12,4.442676 11.522336,4 11,4 z"
     style="font-size:medium;font-style:normal;font-variant:normal;font-weight:normal;font-stretch:normal;text-indent:0;text-align:start;text-decoration:none;line-height:normal;letter-spacing:normal;word-spacing:normal;text-transform:none;direction:ltr;block-progression:tb;writing-mode:lr-tb;text-anchor:start;baseline-shift:baseline;color:#000000;fill:#e9b080;fill-opacity:1;fill-rule:nonzero;stroke:none;stroke-width:0.81800002000000005;marker:none;visibility:visible;display:inline;overflow:visible;enable-background:accumulate;font-family:Sans;-inkscape-font-specification:Sans" />
  <path
     style="font-size:medium;font-style:normal;font-variant:normal;font-weight:normal;font-stretch:normal;text-indent:0;text-align:start;text-decoration:none;line-height:normal;letter-spacing:normal;word-spacing:normal;text-transform:none;direction:ltr;block-progression:tb;writing-mode:lr-tb;text-anchor:start;baseline-shift:baseline;color:#000000;fill:#000000;fill-opacity:0.32038838;fill-rule:nonzero;stroke:none;stroke-width:0.81800002;marker:none;visibility:visible;display:inline;overflow:visible;enable-background:accumulate;font-family:Sans;-inkscape-font-specification:Sans"
     d="M 2,4 C 1.503058,4 1,4.4696179 1,5 L 1,6 C 0.534823,6 -8.71e-4,6.4172976 0,7.0000001 L 0,15 c 0,0.60223 0.47015,1 1,1 l 12,0 c 0.541553,0 1.001045,-0.397772 1,-1 l 0,-6.9999999 c -6.31e-4,-0.603019 -0.48019,-0.920707 -1,-1 l -1,0 L 12,5 C 12,4.442676 11.522336,4 11,4 z M 1,7.0000001 8,7 l 0,1 5,10e-8 L 13,15 1,15 z"
     id="path3768-9"
     inkscape:connector-curvature="0"
     sodipodi:nodetypes="ssccsssccscsssccccccc" />
  <path
     style="font-size:medium;font-style:normal;font-variant:normal;font-weight:normal;font-stretch:normal;text-indent:0;text-align:start;text-decoration:none;line-height:normal;letter-spacing:normal;word-spacing:normal;text-transform:none;direction:ltr;block-progression:tb;writing-mode:lr-tb;text-anchor:start;baseline-shift:baseline;color:#000000;fill:#000000;fill-opacity:0.10196079;fill-rule:nonzero;stroke:none;stroke-width:0.81800002000000005;marker:none;visibility:visible;display:inline;overflow:visible;enable-background:accumulate;font-family:Sans;-inkscape-font-specification:Sans"
     d="M 2 4 C 1.503058 4 1 4.4696179 1 5 L 1 6 C 0.534823 6 -0.000871 6.4172975 0 7 L 0 15 C 0 15.60223 0.481939 16 1 16 L 13 16 C 13.268822 16 13.504575 15.893471 13.6875 15.71875 C 13.786931 15.628343 13.851532 15.536122 13.90625 15.40625 C 13.957642 15.284271 14.000261 15.150557 14 15 L 14 8 C 13.999842 7.8492453 13.959419 7.7095718 13.90625 7.59375 C 13.857087 7.4799225 13.771333 7.3962986 13.6875 7.3125 C 13.501741 7.1268167 13.271734 7 13 7 L 12 7 L 12 5 C 12 4.442676 11.522336 4 11 4 L 2 4 z "
     id="path2987" />
  <path
     sodipodi:nodetypes="ccccsssccccccc"
     inkscape:connector-curvature="0"
     id="path3782"
     d="M 4,0 C 3.503058,0 3,0.4696179 3,1 L 3,2 C 2.534823,2 1.999129,2.4172975 2,3 l 0,8 c 0,0.60223 0.481939,1 1,1 l 12,0 c 0.537645,0 1.001045,-0.397772 1,-1 l 0,-6.9999999 c -6.31e-4,-0.603019 -0.474177,-1 -1,-1 l -1,0 L 14,1 C 14,0.442676 13.522336,0 13,0 z"
     style="font-size:medium;font-style:normal;font-variant:normal;font-weight:normal;font-stretch:normal;text-indent:0;text-align:start;text-decoration:none;line-height:normal;letter-spacing:normal;word-spacing:normal;text-transform:none;direction:ltr;block-progression:tb;writing-mode:lr-tb;text-anchor:start;baseline-shift:baseline;color:#000000;fill:#e9b080;fill-opacity:1;fill-rule:nonzero;stroke:none;stroke-width:0.81800002;marker:none;visibility:visible;display:inline;overflow:visible;enable-background:accumulate;font-family:Sans;-inkscape-font-specification:Sans" />
  <path
     style="font-size:medium;font-style:normal;font-variant:normal;font-weight:normal;font-stretch:normal;text-indent:0;text-align:start;text-decoration:none;line-height:normal;letter-spacing:normal;word-spacing:normal;text-transform:none;direction:ltr;block-progression:tb;writing-mode:lr-tb;text-anchor:start;baseline-shift:baseline;color:#000000;fill:#000000;fill-opacity:0.32038838;fill-rule:nonzero;stroke:none;stroke-width:0.81800002;marker:none;visibility:visible;display:inline;overflow:visible;enable-background:accumulate;font-family:Sans;-inkscape-font-specification:Sans"
     d="M 4,0 C 3.503058,0 3,0.4696179 3,1 L 3,2 C 2.534823,2 1.999129,2.4172976 2,3.0000001 L 2,11 c 0,0.60223 0.47015,1 1,1 l 12,0 c 0.541553,0 1.001045,-0.397772 1,-1 l 0,-6.9999999 c -6.31e-4,-0.603019 -0.48019,-0.920707 -1,-1 l -1,0 L 14,1 C 14,0.442676 13.522336,0 13,0 z M 3,3.0000001 10,3 l 0,1 5,1e-7 L 15,11 3,11 z"
     id="path3768"
     inkscape:connector-curvature="0"
     sodipodi:nodetypes="ssccsssccscsssccccccc" />
  <path
     style="fill:#859900"
     d="m 15.99996,9.9999265 -3,0 0,-2.9999999 -3,0 0,2.9999999 -3.0000003,0 0,2.9999995 3.0000003,0 0,3 3,0 0,-3 3,0 z"
     id="path18" />
</svg>
